icons/WebAssembly.svg

<svg xmlns="http://www.w3.org/2000/svg" width="256" height="256" fill="none" viewBox="0 0 256 256"><g clip-path="url(#clip0_7_144)"><path fill="#654FF0" d="M157.281 0C157.281 0.451765 157.281 0.903529 157.281 1.38039C157.281 17.5937 144.138 30.7325 127.929 30.7325C111.716 30.7325 98.5767 17.5895 98.5767 1.38039C98.5767 0.903529 98.5767 0.451765 98.5767 0L0 0V256H256V0H157.281Z"/><path fill="#fff" d="M59.4656 137.96H76.4318L88.0146 199.647H88.2237L102.145 137.96H118.015L130.589 200.404H130.836L144.038 137.96H160.678L139.056 228.601H122.219L109.749 166.914H109.423L96.0752 228.601H78.9249L59.4656 137.96ZM179.806 137.96H206.553L233.115 228.601H215.613L209.836 208.431H179.367L174.908 228.601H157.862L179.806 137.96ZM189.988 160.301L182.588 193.556H205.62L197.124 160.301H189.988Z"/></g><defs><clipPath id="clip0_7_144"><rect width="256" height="256" fill="#fff" rx="60"/></clipPath></defs></svg>

<svg xmlns="http://www.w3.org/2000/svg" width="256" height="256" fill="none" viewBox="0 0 256 256"><g clip-path="url(#a)"><path fill="#654FF0" d="M157.28 0v1.38a29.35 29.35 0 1 1-58.7 0V0H0v256h256V0z"/><path fill="#fff" d="M59.47 137.96h16.96l11.58 61.69h.21l13.92-61.69h15.88l12.57 62.44h.25l13.2-62.44h16.64l-21.62 90.64h-16.84l-12.47-61.69h-.33l-13.34 61.7H78.92zm120.34 0h26.74l26.57 90.64h-17.5l-5.78-20.17h-30.47l-4.46 20.17h-17.05zm10.18 22.34-7.4 33.26h23.03l-8.5-33.26z"/></g><defs><clipPath id="a"><rect width="256" height="256" fill="#fff" rx="60"/></clipPath></defs></svg>
